src/icons/globe-cog.svg

<svg viewBox="0 0 24 24" fill="none" xmlns="http://www.w3.org/2000/svg">
<path fill-rule="evenodd" clip-rule="evenodd" d="M7.44443 12.6372C7.31746 12.5659 7.18707 12.5 7.05355 12.4398C6.42706 12.1573 5.73189 12 5 12C4.41736 12 3.85799 12.0997 3.33802 12.2829C3.2064 12.3292 3.0773 12.381 2.95098 12.4378C2.63045 12.582 2.32786 12.7589 2.04747 12.9644C2.01608 12.6467 2 12.325 2 12C2 6.52942 6.52942 2 11.9902 2C17.4608 2 22 6.52942 22 12C22 17.4608 17.4706 22 12 22C10.5358 22 9.1378 21.6737 7.87583 21.0907C8.27342 20.8107 8.62836 20.4741 8.92896 20.0928C9.15487 20.1802 9.38514 20.2582 9.6193 20.3266C9.45828 20.1623 9.30268 19.9814 9.15313 19.7851C9.42815 19.3758 9.64427 18.9236 9.78933 18.4406C10.2477 19.2668 10.7872 19.8578 11.3628 20.1136V16.9815C10.8879 16.998 10.4329 17.0331 9.99927 17.0864C9.99975 17.0576 10 17.0288 10 17C10 16.5949 9.95183 16.2011 9.86091 15.824C10.3458 15.76 10.8481 15.7175 11.3628 15.6982V12.6372H8.37415C8.38297 12.8765 8.39684 13.1138 8.41551 13.3484C8.12262 13.0743 7.79672 12.835 7.44443 12.6372ZM14.3807 20.3266C15.6776 19.9482 16.8552 19.2702 17.8315 18.375C17.3354 18.029 16.7381 17.7434 16.0505 17.5222C15.616 18.6915 15.0444 19.6494 14.3807 20.3266ZM14.7715 17.2041C14.2284 18.6674 13.4754 19.7353 12.6471 20.1092V16.9818C13.4085 17.0087 14.1188 17.0836 14.7715 17.2041ZM15.1488 15.9933C14.3678 15.833 13.5255 15.732 12.6471 15.6986V12.6372H15.6259C15.5819 13.8307 15.4122 14.973 15.1488 15.9933ZM16.427 16.3258C17.3297 16.6154 18.1079 16.9948 18.7085 17.4461C19.8018 16.1071 20.5074 14.4433 20.6429 12.6372H16.9412C16.8985 13.9754 16.7178 15.2192 16.427 16.3258ZM16.9398 11.353H20.6421C20.5056 9.56517 19.8091 7.91715 18.7308 6.58608C18.129 7.04342 17.3458 7.42768 16.4355 7.72054C16.7183 8.81173 16.895 10.0359 16.9398 11.353ZM15.162 8.05305C14.3772 8.21491 13.5305 8.31691 12.6471 8.35051V11.353H15.6245C15.5791 10.1753 15.4151 9.0546 15.162 8.05305ZM14.7907 6.8387C14.1327 6.96233 13.416 7.03947 12.6471 7.06702V3.88953C13.4852 4.26474 14.2461 5.34605 14.7907 6.8387ZM16.0622 6.51889C16.7571 6.29375 17.3594 6.00368 17.8578 5.6542C16.8749 4.74544 15.6858 4.05736 14.3757 3.67462C15.0481 4.35789 15.6255 5.32966 16.0622 6.51889ZM9.6316 3.66727C8.3152 4.04793 7.12162 4.73746 6.13624 5.64997C6.6358 6.00135 7.2402 6.29284 7.93782 6.51889C8.37608 5.32539 8.95613 4.35091 9.6316 3.66727ZM9.20939 6.83871C9.75603 5.3402 10.5208 4.25627 11.3628 3.88515V7.06737C10.5901 7.04013 9.87016 6.96286 9.20939 6.83871ZM7.5645 7.72055C6.65179 7.42692 5.86682 7.04139 5.26447 6.58244C4.18819 7.91414 3.4938 9.56354 3.35785 11.353H7.06029C7.10503 10.0359 7.28172 8.81173 7.5645 7.72055ZM8.3756 11.353C8.42099 10.1753 8.58494 9.05461 8.8381 8.05305C9.62575 8.21551 10.4759 8.31767 11.3628 8.35088V11.353H8.3756Z" fill="currentColor"/>
<path fill-rule="evenodd" clip-rule="evenodd" d="M4.22439 20.6613C4.26503 20.8713 4.43438 21 4.65114 21H5.34886C5.55885 21 5.7282 20.8713 5.76884 20.6613L5.96528 19.8484C6.10076 19.801 6.22947 19.7468 6.33785 19.6994L7.04911 20.1262C7.22523 20.2549 7.442 20.2278 7.59102 20.0787L8.07197 19.5978C8.221 19.442 8.25487 19.2185 8.11939 19.0423L7.69941 18.3378C7.7536 18.2227 7.80102 18.1008 7.84166 17.9721L8.6613 17.7824C8.8713 17.735 9 17.5724 9 17.3556V16.6715C9 16.4615 8.8713 16.2921 8.6613 16.2515L7.84843 16.055C7.80102 15.9128 7.74682 15.7841 7.69941 15.6825L8.13294 14.9712C8.25487 14.7883 8.24132 14.5783 8.08552 14.4225L7.59102 13.9416C7.43522 13.7993 7.25233 13.7722 7.06266 13.8806L6.33785 14.3209C6.22947 14.2667 6.10076 14.2125 5.96528 14.1651L5.76884 13.3455C5.7282 13.1355 5.55885 13 5.34886 13H4.65114C4.43438 13 4.26503 13.1355 4.22439 13.3522L4.02794 14.1583C3.89924 14.2058 3.76376 14.2599 3.6486 14.3141L2.93734 13.8806C2.74767 13.7722 2.558 13.7925 2.4022 13.9416L1.90771 14.4225C1.75191 14.5783 1.73836 14.7883 1.86029 14.9712L2.29382 15.6825C2.2464 15.7841 2.19221 15.9128 2.14479 16.055L1.3387 16.2515C1.12193 16.2921 1 16.4615 1 16.6715V17.3556C1 17.5724 1.12193 17.735 1.3387 17.7824L2.15157 17.9721C2.19221 18.1008 2.23963 18.2227 2.30059 18.3378L1.87384 19.0423C1.74513 19.2185 1.77223 19.442 1.92125 19.5978L2.4022 20.0787C2.558 20.2278 2.77477 20.2549 2.94412 20.1262L3.65538 19.6994C3.76376 19.7468 3.89924 19.801 4.02794 19.8484L4.22439 20.6613ZM6.3243 16.9966C6.3243 17.7214 5.7282 18.3243 4.99661 18.3243C4.2718 18.3243 3.6757 17.7214 3.6757 16.9966C3.6757 16.2786 4.2718 15.6825 4.99661 15.6825C5.7282 15.6825 6.3243 16.2786 6.3243 16.9966Z" fill="currentColor"/>
</svg>

<svg viewBox="0 0 24 24" fill="none" xmlns="http://www.w3.org/2000/svg"><path fill-rule="evenodd" clip-rule="evenodd" d="M7.444 12.637A4.972 4.972 0 0 0 5 12a4.992 4.992 0 0 0-2.953.964A9.806 9.806 0 0 1 2 12C2 6.53 6.53 2 11.99 2 17.46 2 22 6.53 22 12c0 5.46-4.53 10-10 10a9.814 9.814 0 0 1-4.124-.91 5.03 5.03 0 0 0 1.053-.997c.226.087.456.165.69.234a5.759 5.759 0 0 1-.466-.542c.275-.41.491-.861.636-1.344.459.826.998 1.417 1.574 1.673V16.98c-.475.017-.93.052-1.364.105L10 17c0-.405-.048-.799-.14-1.176.486-.064.988-.107 1.503-.126v-3.06H8.374c.009.239.023.476.042.71a5.015 5.015 0 0 0-.972-.71zm6.937 7.69a8.735 8.735 0 0 0 3.45-1.952c-.496-.346-1.093-.632-1.78-.853-.435 1.17-1.007 2.127-1.67 2.805zm.39-3.123c-.543 1.463-1.296 2.531-2.124 2.905v-3.127c.761.027 1.472.102 2.124.222zm.378-1.21a15.408 15.408 0 0 0-2.502-.295v-3.062h2.979a15.885 15.885 0 0 1-.477 3.356zm1.278.332c.903.29 1.68.669 2.282 1.12a8.624 8.624 0 0 0 1.934-4.809H16.94a16.675 16.675 0 0 1-.514 3.689zm.513-4.973h3.702a8.615 8.615 0 0 0-1.911-4.767c-.602.457-1.385.842-2.296 1.135.283 1.09.46 2.315.505 3.632zm-1.778-3.3c-.785.162-1.632.264-2.515.298v3.002h2.977a16.108 16.108 0 0 0-.462-3.3zm-.371-1.214c-.658.123-1.375.2-2.144.228V3.89c.838.375 1.6 1.456 2.144 2.949zm1.271-.32c.695-.225 1.297-.515 1.796-.865a8.756 8.756 0 0 0-3.482-1.98c.672.684 1.25 1.656 1.686 2.845zm-6.43-2.852A8.717 8.717 0 0 0 6.136 5.65c.5.351 1.104.643 1.802.869.438-1.194 1.018-2.168 1.694-2.852zM9.209 6.84c.547-1.499 1.312-2.583 2.154-2.954v3.182a14.451 14.451 0 0 1-2.154-.228zm-1.644.882c-.913-.294-1.698-.68-2.3-1.139a8.63 8.63 0 0 0-1.907 4.771H7.06c.045-1.317.222-2.541.505-3.632zm.81 3.632c.046-1.178.21-2.298.463-3.3.788.163 1.638.265 2.525.298v3.002H8.376z" fill="currentColor"/><path fill-rule="evenodd" clip-rule="evenodd" d="M4.224 20.661c.041.21.21.339.427.339h.698a.41.41 0 0 0 .42-.339l.196-.813c.136-.047.264-.101.373-.149l.711.427a.406.406 0 0 0 .542-.047l.481-.481c.149-.156.183-.38.047-.556l-.42-.704c.055-.115.102-.237.143-.366l.82-.19A.417.417 0 0 0 9 17.356v-.684a.41.41 0 0 0-.339-.42l-.813-.197a3.543 3.543 0 0 0-.149-.373l.434-.71c.122-.184.108-.394-.047-.55l-.495-.48a.42.42 0 0 0-.528-.061l-.725.44a3.247 3.247 0 0 0-.373-.156l-.196-.82a.416.416 0 0 0-.42-.345H4.65a.418.418 0 0 0-.427.352l-.196.806a4.943 4.943 0 0 0-.38.156l-.71-.433c-.19-.109-.38-.088-.536.06l-.494.481c-.156.156-.17.366-.048.55l.434.71c-.048.102-.102.23-.15.373l-.805.197c-.217.04-.339.21-.339.42v.684c0 .216.122.379.339.426l.813.19c.04.129.088.25.149.366l-.427.704a.424.424 0 0 0 .047.556l.481.48c.156.15.373.177.542.048l.711-.427c.109.048.244.102.373.15l.196.812zm2.1-3.664c0 .724-.596 1.327-1.327 1.327-.725 0-1.321-.603-1.321-1.327a1.326 1.326 0 0 1 2.648 0z" fill="currentColor"/></svg>
